docs/img/svg/map.svg

<svg xmlns="http://www.w3.org/2000/svg" preserveAspectRatio="xMidYMid" width="12" height="17" viewBox="0 0 12 17"><defs><style>.cls-1{fill:#818181;fill-rule:evenodd}</style></defs><path d="M6.736 16.61a.906.906 0 0 1-.736.385.908.908 0 0 1-.736-.385C3.662 14.372.001 8.961.001 6.26.001 2.802 2.687-.001 6-.001c3.313 0 5.999 2.803 5.999 6.261 0 2.701-3.661 8.111-5.263 10.35zM6 1.141c-2.705 0-4.905 2.296-4.905 5.119 0 1.517 1.706 4.878 4.493 8.884a.502.502 0 0 0 .412.219.504.504 0 0 0 .413-.219c2.786-4.006 4.493-7.367 4.493-8.884 0-2.823-2.201-5.119-4.906-5.119zM3.448 5.865c0-1.471 1.143-2.664 2.552-2.664 1.41 0 2.552 1.193 2.552 2.664S7.41 8.528 6 8.528c-1.409 0-2.552-1.192-2.552-2.663zm4.01 0c0-.84-.654-1.522-1.458-1.522-.804 0-1.458.682-1.458 1.522 0 .839.654 1.522 1.458 1.522.804 0 1.458-.683 1.458-1.522z" class="cls-1"/></svg>

<svg xmlns="http://www.w3.org/2000/svg" xmlns:xlink="http://www.w3.org/1999/xlink" preserveAspectRatio="xMidYMid" width="12" height="17" viewBox="0 0 12 17">
  <defs>
    <style>
      .cls-1 {
        fill: #818181;
        fill-rule: evenodd;
      }
    </style>
  </defs>
  <path d="M6.736,16.610 C6.563,16.852 6.290,16.995 6.000,16.995 L6.000,16.995 C5.710,16.995 5.438,16.852 5.264,16.610 C3.662,14.372 0.001,8.961 0.001,6.260 C0.001,2.802 2.687,-0.001 6.000,-0.001 C9.313,-0.001 11.999,2.802 11.999,6.260 C11.999,8.961 8.338,14.371 6.736,16.610 ZM6.000,1.141 C3.295,1.141 1.095,3.437 1.095,6.260 C1.095,7.777 2.801,11.138 5.588,15.144 C5.684,15.282 5.837,15.363 6.000,15.363 C6.163,15.363 6.317,15.282 6.413,15.144 C9.199,11.138 10.906,7.777 10.906,6.260 C10.906,3.437 8.705,1.141 6.000,1.141 ZM3.448,5.865 C3.448,4.394 4.591,3.201 6.000,3.201 C7.410,3.201 8.552,4.394 8.552,5.865 C8.552,7.336 7.410,8.528 6.000,8.528 C4.591,8.528 3.448,7.336 3.448,5.865 ZM7.458,5.865 C7.458,5.025 6.804,4.343 6.000,4.343 C5.196,4.343 4.542,5.025 4.542,5.865 C4.542,6.704 5.196,7.387 6.000,7.387 C6.804,7.387 7.458,6.704 7.458,5.865 Z" class="cls-1"/>
</svg>
